src/icons/svg/UserAttribute.svg

<svg width="24" height="24" viewBox="0 0 24 24" fill="none" xmlns="http://www.w3.org/2000/svg">
<path d="M12 14H14V16H12V14Z" fill="#1C2125"/>
<path d="M16 14H24V16H16V14Z" fill="#1C2125"/>
<path d="M12 18H14V20H12V18Z" fill="#1C2125"/>
<path d="M16 18H24V20H16V18Z" fill="#1C2125"/>
<path d="M12 22H14V24H12V22Z" fill="#1C2125"/>
<path d="M16 22H24V24H16V22Z" fill="#1C2125"/>
<path d="M5.22399 14.745C2.15199 15.275 2.17999 15.269 1.80999 15.618C0.52599 16.829 0.15399 19.448 1.24299 20.991L1.29999 21.072L1.37599 21.135C1.59799 21.32 2.03199 21.431 2.97499 21.533C4.33299 21.679 6.54099 21.766 9.80099 21.766V20.266C6.58999 20.266 4.43199 20.181 3.13499 20.042C2.78299 20.004 2.52399 19.965 2.34899 19.928C1.86299 18.976 2.13199 17.376 2.83899 16.709C2.78199 16.763 2.82899 16.742 2.91199 16.718C3.06299 16.673 3.27499 16.623 3.54899 16.567C3.79299 16.517 4.07799 16.465 4.44899 16.4C4.66499 16.362 5.45099 16.228 5.47699 16.223C6.65599 16.02 7.34099 15.883 7.88299 15.726C8.27799 15.612 8.56099 15.495 8.77099 15.333C9.26399 14.952 9.30699 14.281 8.79399 13.867C6.91499 12.348 5.69099 10.117 5.69099 7.925C5.69099 4.225 6.89699 2.55 10.345 2.55C13.793 2.55 14.999 4.224 14.999 7.925C14.999 8.838 14.698 9.868 14.153 10.92L15.485 11.61C16.132 10.36 16.499 9.105 16.499 7.925C16.499 3.482 14.748 1.05 10.345 1.05C5.94199 1.05 4.19099 3.482 4.19099 7.925C4.19099 10.294 5.32399 12.634 7.11399 14.379C6.67599 14.485 6.08899 14.596 5.22299 14.746L5.22399 14.745Z" fill="#1C2125"/>
</svg>

<!-- Generated by IcoMoon.io -->
<svg version="1.1" xmlns="http://www.w3.org/2000/svg" width="24" height="24" viewBox="0 0 24 24">
<title>user-attribute</title>
<path fill="#444" d="M12 14h2v2h-2v-2z"></path>
<path fill="#444" d="M16 14h8v2h-8v-2z"></path>
<path fill="#444" d="M12 18h2v2h-2v-2z"></path>
<path fill="#444" d="M16 18h8v2h-8v-2z"></path>
<path fill="#444" d="M12 22h2v2h-2v-2z"></path>
<path fill="#444" d="M16 22h8v2h-8v-2z"></path>
<path fill="#444" d="M5.224 14.745c-3.072 0.53-3.044 0.524-3.414 0.873-1.284 1.211-1.656 3.83-0.567 5.373l0.057 0.081 0.076 0.063c0.222 0.185 0.656 0.296 1.599 0.398 1.358 0.146 3.566 0.233 6.826 0.233v-1.5c-3.211 0-5.369-0.085-6.666-0.224-0.352-0.038-0.611-0.077-0.786-0.114-0.486-0.952-0.217-2.552 0.49-3.219-0.057 0.054-0.010 0.033 0.073 0.009 0.151-0.045 0.363-0.095 0.637-0.151 0.244-0.050 0.529-0.102 0.9-0.167 0.216-0.038 1.002-0.172 1.028-0.177 1.179-0.203 1.864-0.34 2.406-0.497 0.395-0.114 0.678-0.231 0.888-0.393 0.493-0.381 0.536-1.052 0.023-1.466-1.879-1.519-3.103-3.75-3.103-5.942 0-3.7 1.206-5.375 4.654-5.375s4.654 1.674 4.654 5.375c0 0.913-0.301 1.943-0.846 2.995l1.332 0.69c0.647-1.25 1.014-2.505 1.014-3.685 0-4.443-1.751-6.875-6.154-6.875s-6.154 2.432-6.154 6.875c0 2.369 1.133 4.709 2.923 6.454-0.438 0.106-1.025 0.217-1.891 0.367z"></path>
</svg>
